src/pos-icons/chevron-double-down.svg

<svg height="24" viewBox="0 0 24 24" width="24" xmlns="http://www.w3.org/2000/svg"><path d="m16.59 5.59 1.41 1.41-6 6-6-6 1.41-1.41 4.59 4.58zm0 6 1.41 1.41-6 6-6-6 1.41-1.41 4.59 4.58z"/></svg>

<?xml version="1.0" encoding="UTF-8"?><!DOCTYPE svg PUBLIC "-//W3C//DTD SVG 1.1//EN" "http://www.w3.org/Graphics/SVG/1.1/DTD/svg11.dtd"><svg xmlns="http://www.w3.org/2000/svg" xmlns:xlink="http://www.w3.org/1999/xlink" version="1.1" id="mdi-chevron-double-down" width="24" height="24" viewBox="0 0 24 24"><path d="M16.59,5.59L18,7L12,13L6,7L7.41,5.59L12,10.17L16.59,5.59M16.59,11.59L18,13L12,19L6,13L7.41,11.59L12,16.17L16.59,11.59Z" /></svg>
